X: 19551
T: James F. Dickie's Delight
R: strathspey
M: 4/4
K: Amajor
A,|:C3B, A,3C|D3F A4|G3B/G/ E3G|A3c e4|
[1 d3f a3g|(3f2e2d2 (3c2d2e2|fF3 B3A|(3G2F2E2 (3D2C2B,2:|
[2 d3f a3f|a3g (3f2e2d2|cE3 c3B|(A4A3)A||
|:A3c e3a|G3B e3g|F3A d3f|E3A ce3|
[1 C3E A3c|(3f2e2d2 (3c2B2A2|BF3 B3A|(3GB3G2 (3E2F2G2:|
[2 d3c d3f|a3g (3f2e2d2|cE3 c3B|(A4A3)||

